X: 51
T:Gavot. TBe.051
M:3/4
L:1/4
Q:80
S:Thomas Bennet MS,1718, VWML
R:gavot
O:England
H:Before 1718
Z:C. Grabbe
K:BB major
g2 f | egG | cde | d3 | f2e | d=Bc | B (c3/2 B/4c/4) | d3 ||!
g2f | gez | f2e | fdz | e2d | cdB | cA2 | G3 | !
g2f | gez | f2e | fdz | e2d | c=Bc | dd2 | c3 ||
